X:25
T:The High Road to Linton
Z:Jack Campin, 2006, http://www.campin.me.uk/
M:C|
L:1/8
Q:1/2=110
K:A Mixolydian
ceef a2ae|f2fe a2ae|ceef a2ae|faec B2A2:|
ceeg fddf|ecce fBB2|ceeg fddf|ecac B2A2:|
K:A
a2a2 efa2|efae faef|a2a2 efae|faec B2A2:|
c2ec defd|c2ec BcdB|c2ec defg|afec B2A2:|

